X: 33054
T: Pride Of The Bronx, The
R: reel
M: 4/4
K: Dmajor
AF F2 AFdB|AF F2 G3B|AF F2 ABde|fdaf efdB|
AF F2 AFdB|AF F2 G3B|AF F2 ABde|fdaf efde||
fa a2 fb b2|faab afed|fa a2 fb b2|afdf efde|
fa a2 fb b2|faab afef|dBAF ABde|fdaf efdB||

